data/texture/07_Davinci Resolve LUTs_Sunset.cube
LUT_3D_SIZE 16
-0.067786 -0.063914 -0.081808
-0.031561 -0.063914 -0.081808
0.035864 -0.063914 -0.081808
0.090151 -0.063914 -0.081808
0.171006 -0.063914 -0.081808
0.287784 -0.063914 -0.081808
0.416451 -0.063914 -0.081808
0.521595 -0.063914 -0.081808
0.611566 -0.063914 -0.081808
0.688368 -0.063914 -0.081808
0.754372 -0.063914 -0.081808
0.813513 -0.063914 -0.081808
0.864330 -0.063914 -0.081808
0.909138 -0.063914 -0.081808
0.945189 -0.063914 -0.081808
0.975806 -0.063914 -0.081808
-0.067786 0.033739 -0.081808
-0.031561 0.033739 -0.081808
0.035864 -0.044846 -0.081808
0.090151 -0.046673 -0.081808
0.171006 -0.043591 -0.081808
0.287784 -0.037770 -0.081808
0.416451 -0.029110 -0.081808
0.521595 -0.012219 -0.081808
0.611566 0.024799 -0.081808
0.688368 0.032382 -0.081808
0.754372 0.036457 -0.081808
0.813513 0.038571 -0.081808
0.864330 0.039165 -0.081808
0.909138 0.038778 -0.081808
0.945189 0.036553 -0.081808
0.975806 0.033738 -0.081808
-0.067786 0.106765 -0.081808
-0.054905 0.106765 -0.081808
0.036690 0.106765 -0.081808
0.090151 0.102756 -0.081808
0.171006 0.109645 -0.081808
0.287784 0.118057 -0.081808
0.416451 0.126700 -0.081808
0.521595 0.134416 -0.081808
0.611566 0.140827 -0.081808
0.688368 0.145350 -0.081808
0.754372 0.148303 -0.081808
0.813513 0.150347 -0.081808
0.864330 0.150103 -0.081808
0.909138 0.150477 -0.081808
0.945189 0.148424 -0.081808
0.975806 0.146309 -0.081808
-0.067786 0.154635 -0.081808
-0.056053 0.154635 -0.081808
0.032629 0.154635 -0.081808
0.090151 0.154635 -0.081808
0.171006 0.162213 -0.081808
0.287784 0.174277 -0.081808
0.416451 0.185108 -0.081808
0.521595 0.195633 -0.081808
0.611566 0.204529 -0.081808
0.688368 0.210906 -0.081808
0.754372 0.214919 -0.081808
0.813513 0.217869 -0.081808
0.864330 0.218779 -0.081808
0.909138 0.217499 -0.081808
0.945189 0.215280 -0.081808
0.975806 0.212278 -0.081808
-0.067786 0.211403 -0.081808
-0.054147 0.211403 -0.081808
0.038365 0.211403 -0.081808
0.099749 0.211403 -0.081808
0.171006 0.211289 -0.081808
0.287784 0.225904 -0.081808
0.416451 0.241001 -0.081808
0.521595 0.254929 -0.081808
0.611566 0.266800 -0.081808
0.688368 0.275330 -0.081808
0.754372 0.281093 -0.081808
0.813513 0.284266 -0.081808
0.864330 0.284778 -0.081808
0.909138 0.285212 -0.081808
0.945189 0.281172 -0.081808
0.975806 0.277136 -0.081808
-0.067786 0.278114 -0.081808
-0.050936 0.278114 -0.081808
0.047169 0.278114 -0.081808
0.114824 0.278114 -0.081808
0.194146 0.278115 -0.081808
0.287784 0.277624 -0.081808
0.416451 0.296959 -0.081808
0.521595 0.314535 -0.081808
0.611566 0.329547 -0.081808
0.688368 0.340350 -0.081808
0.754372 0.347833 -0.081808
0.813513 0.352258 -0.081808
0.864330 0.353242 -0.081808
0.909138 0.351800 -0.081808
0.945189 0.347724 -0.081808
0.975806 0.342636 -0.081808
-0.067786 0.353538 -0.081808
-0.046920 0.353538 -0.081808
0.056658 0.353538 -0.081808
0.130719 0.353538 -0.081808
0.220067 0.353538 -0.081808
0.323503 0.353674 -0.081808
0.416451 0.353538 -0.081808
0.521595 0.374856 -0.081808
0.611566 0.393155 -0.081808
0.688368 0.406249 -0.081808
0.754372 0.415511 -0.081808
0.813513 0.419340 -0.081808
0.864330 0.421814 -0.081808
0.909138 0.421193 -0.081808
0.945189 0.415251 -0.081808
0.975806 0.409045 -0.081808
-0.067786 0.436020 -0.081808
-0.042267 0.436020 -0.081808
0.064724 0.436020 -0.081808
0.147385 0.436020 -0.081808
0.243907 0.436020 -0.081808
0.355807 0.436020 -0.081808
0.446308 0.436020 -0.081808
0.521595 0.436020 -0.081808
0.611566 0.457614 -0.081808
0.688368 0.473147 -0.081808
0.754372 0.484191 -0.081808
0.813513 0.489317 -0.081808
0.864330 0.491431 -0.081808
0.909138 0.489772 -0.081808
0.945189 0.483812 -0.081808
0.975806 0.476470 -0.081808
-0.067786 0.523006 -0.081808
-0.037244 0.523006 -0.081808
0.073199 0.523006 -0.081808
0.160394 0.523006 -0.081808
0.264775 0.523006 -0.081808
0.380394 0.523006 -0.081808
0.470177 0.523006 -0.081808
0.545483 0.523006 -0.081808
0.611566 0.523006 -0.081808
0.688368 0.540946 -0.081808
0.754372 0.552842 -0.081808
0.813513 0.560291 -0.081808
0.864330 0.562061 -0.081808
0.909138 0.561244 -0.081808
0.945189 0.553376 -0.081808
0.975806 0.544816 -0.081808
-0.067786 0.609687 -0.081808
-0.032685 0.609687 -0.081808
0.078700 0.609687 -0.081808
0.170797 0.609687 -0.081808
0.282484 0.609687 -0.081808
0.397510 0.609687 -0.081808
0.486568 0.609687 -0.081808
0.561996 0.609687 -0.081808
0.628383 0.609687 -0.081808
0.688368 0.609687 -0.081808
0.754383 0.623363 -0.081808
0.813513 0.631230 -0.081808
0.864330 0.633582 -0.081808
0.909138 0.631667 -0.081808
0.945189 0.623748 -0.081808
0.975806 0.614046 -0.081808
-0.067786 0.694589 -0.081808
-0.028903 0.694589 -0.081808
0.082074 0.694589 -0.081808
0.176859 0.694589 -0.081808
0.292745 0.694589 -0.081808
0.408029 0.694589 -0.081808
0.497239 0.694589 -0.081808
0.572738 0.694589 -0.081808
0.639362 0.694589 -0.081808
0.699589 0.694589 -0.081808
0.754709 0.694589 -0.081808
0.813277 0.702471 -0.081808
0.864330 0.705915 -0.081808
0.909138 0.703897 -0.081808
0.945189 0.694989 -0.081808
0.975806 0.684062 -0.081808
-0.067786 0.776456 -0.081808
-0.026324 0.776456 -0.081808
0.084349 0.776456 -0.081808
0.181466 0.776456 -0.081808
0.298010 0.776456 -0.081808
0.413539 0.776456 -0.081808
0.503144 0.776456 -0.081808
0.578812 0.776456 -0.081808
0.645573 0.776456 -0.081808
0.706030 0.776456 -0.081808
0.761579 0.776456 -0.081808
0.813561 0.776456 -0.081808
0.864330 0.779105 -0.081808
0.909138 0.777989 -0.081808
0.945189 0.767083 -0.081808
0.975806 0.754960 -0.081808
-0.067786 0.853674 -0.081808
-0.025366 0.853674 -0.081808
0.084349 0.853674 -0.081808
0.182992 0.853674 -0.081808
0.301120 0.853674 -0.081808
0.414849 0.853674 -0.081808
0.505175 0.853674 -0.081808
0.580810 0.853674 -0.081808
0.647595 0.853674 -0.081808
0.708110 0.853674 -0.081808
0.764148 0.853674 -0.081808
0.816104 0.853674 -0.081808
0.865036 0.853915 -0.081808
0.909138 0.851635 -0.081808
0.945189 0.839726 -0.081808
0.975806 0.826320 -0.081808
-0.067786 0.925014 -0.081808
-0.026186 0.925014 -0.081808
0.084349 0.925014 -0.081808
0.181466 0.925014 -0.081808
0.298569 0.925014 -0.081808
0.413972 0.925014 -0.081808
0.503505 0.925014 -0.081808
0.579096 0.925014 -0.081808
0.645893 0.925014 -0.081808
0.706283 0.925014 -0.081808
0.761806 0.925014 -0.081808
0.813773 0.925014 -0.081808
0.862934 0.924403 -0.081808
0.909138 0.926074 -0.081808
0.945189 0.913184 -0.081808
0.975806 0.898660 -0.081808
-0.067786 0.985731 -0.081808
-0.028788 0.985731 -0.081808
0.082074 0.985731 -0.081808
0.176859 0.985731 -0.081808
0.293127 0.985731 -0.081808
0.408474 0.985731 -0.081808
0.497482 0.985731 -0.081808
0.573035 0.985731 -0.081808
0.639692 0.985731 -0.081808
0.700007 0.985731 -0.081808
0.755779 0.985731 -0.081808
0.806747 0.985731 -0.081808
0.855783 0.985731 -0.081808
0.901650 0.986293 -0.081808
0.945189 0.985731 -0.081808
0.975806 0.970438 -0.081808
-0.067786 1.039229 -0.081808
-0.031561 1.039229 -0.081808
0.079818 1.039229 -0.081808
0.172296 1.039229 -0.081808
0.285641 1.039229 -0.081808
0.400810 1.039229 -0.081808
0.489960 1.039229 -0.081808
0.565435 1.039229 -0.081808
0.631876 1.039229 -0.081808
0.691978 1.039229 -0.081808
0.747567 1.039229 -0.081808
0.798231 1.039229 -0.081808
0.847089 1.039229 -0.081808
0.892791 1.039229 -0.081808
0.936056 1.039229 -0.081808
0.975806 1.039229 -0.081808
-0.067786 -0.063914 -0.037676
-0.031561 -0.063914 -0.037676
0.035864 -0.063914 -0.066231
0.090151 -0.063914 -0.067580
0.171006 -0.063914 -0.065320
0.287784 -0.063914 -0.061390
0.416451 -0.063914 -0.056462
0.521595 -0.063914 -0.050794
0.611566 -0.063914 -0.044651
0.688368 -0.063914 -0.039060
0.754372 -0.063914 -0.034385
0.813513 -0.063914 -0.031180
0.864330 -0.063914 -0.030134
0.909138 -0.063914 -0.030824
0.945189 -0.063914 -0.034256
0.975806 -0.063914 -0.037677
-0.067786 0.033739 -0.037676
-0.031561 0.033739 -0.037676
0.035864 0.033739 -0.037676
0.090151 0.033739 -0.037676
0.171006 0.033739 -0.037676
0.287784 0.033739 -0.037676
0.416451 0.033739 -0.037676
0.521595 0.033739 -0.037676
0.611566 0.033739 -0.037676
0.688368 0.033739 -0.037676
0.754372 0.033739 -0.037676
0.813513 0.033739 -0.037676
0.864330 0.033739 -0.037676
0.909138 0.033739 -0.037676
0.945189 0.033739 -0.037676
0.975806 0.033739 -0.037676
-0.067786 0.106765 -0.066170
-0.031561 0.106765 -0.037676
0.036690 0.106765 -0.037676
0.090151 0.109980 -0.037676
0.171006 0.116746 -0.037676
0.287784 0.123590 -0.037676
0.416451 0.130623 -0.037676
0.521595 0.136719 -0.037676
0.611566 0.141868 -0.037676
0.688368 0.145528 -0.037676
0.754372 0.147678 -0.037676
0.813513 0.149693 -0.037676
0.864330 0.149701 -0.037676
0.909138 0.149645 -0.037676
0.945189 0.148034 -0.037676
0.975806 0.146310 -0.037676
-0.067786 0.154635 -0.067569
-0.031561 0.154635 -0.037676
0.040069 0.154635 -0.037676
0.090151 0.154635 -0.037676
0.171006 0.164802 -0.037676
0.287784 0.175356 -0.037676
0.416451 0.186894 -0.037676
0.521595 0.196729 -0.037676
0.611566 0.205065 -0.037676
0.688368 0.211013 -0.037676
0.754372 0.215453 -0.037676
0.813513 0.217089 -0.037676
0.864330 0.217679 -0.037676
0.909138 0.217499 -0.037676
0.945189 0.215083 -0.037676
0.975806 0.212278 -0.037676
-0.067786 0.211403 -0.065254
-0.031561 0.211403 -0.037676
0.046255 0.211403 -0.037676
0.103438 0.211403 -0.037676
0.171006 0.211347 -0.037676
0.287784 0.226526 -0.037676
0.416451 0.241924 -0.037676
0.521595 0.255554 -0.037676
0.611566 0.267130 -0.037676
0.688368 0.275387 -0.037676
0.754372 0.281400 -0.037676
0.813513 0.284338 -0.037676
0.864330 0.284633 -0.037676
0.909138 0.284308 -0.037676
0.945189 0.281042 -0.037676
0.975806 0.277136 -0.037676
-0.067786 0.278114 -0.061352
-0.031561 0.278114 -0.037676
0.053741 0.278114 -0.037676
0.118724 0.278114 -0.037676
0.195733 0.277602 -0.037676
0.287784 0.277941 -0.037676
0.416451 0.297364 -0.037676
0.521595 0.314871 -0.037676
0.611566 0.329752 -0.037676
0.688368 0.340383 -0.037676
0.754372 0.347126 -0.037676
0.813513 0.351375 -0.037676
0.864330 0.353152 -0.037676
0.909138 0.351800 -0.037676
0.945189 0.347655 -0.037676
0.975806 0.342636 -0.037676
-0.067786 0.353538 -0.056462
-0.031561 0.353538 -0.037676
0.060640 0.353538 -0.037676
0.133439 0.353538 -0.037676
0.221742 0.353538 -0.037676
0.325381 0.353816 -0.037676
0.416451 0.353538 -0.037676
0.521595 0.375020 -0.037676
0.611566 0.393206 -0.037676
0.688368 0.406241 -0.037676
0.754372 0.414686 -0.037676
0.813513 0.420276 -0.037676
0.864330 0.421775 -0.037676
0.909138 0.421193 -0.037676
0.945189 0.415194 -0.037676
0.975806 0.409045 -0.037676
-0.067786 0.436020 -0.050794
-0.031561 0.436020 -0.037676
0.067859 0.436020 -0.037676
0.148812 0.436020 -0.037676
0.245846 0.436020 -0.037676
0.355807 0.436020 -0.037676
0.446463 0.436020 -0.037676
0.521595 0.436020 -0.037676
0.611566 0.457644 -0.037676
0.688368 0.473168 -0.037676
0.754372 0.483259 -0.037676
0.813513 0.489338 -0.037676
0.864330 0.491397 -0.037676
0.909138 0.489772 -0.037676
0.945189 0.483787 -0.037676
0.975806 0.476470 -0.037676
-0.067786 0.523006 -0.044651
-0.031561 0.523006 -0.037676
0.074292 0.523006 -0.037676
0.161855 0.523006 -0.037676
0.266727 0.523006 -0.037676
0.380491 0.523006 -0.037676
0.470305 0.523006 -0.037676
0.545562 0.523006 -0.037676
0.611566 0.523006 -0.037676
0.688368 0.540959 -0.037676
0.754372 0.552842 -0.037676
0.813513 0.560303 -0.037676
0.864330 0.562023 -0.037676
0.909138 0.561244 -0.037676
0.945189 0.553320 -0.037676
0.975806 0.544816 -0.037676
-0.067786 0.609687 -0.039060
-0.031561 0.609687 -0.037676
0.078700 0.609687 -0.037676
0.170797 0.609687 -0.037676
0.282535 0.609687 -0.037676
0.397509 0.609687 -0.037676
0.486583 0.609687 -0.037676
0.562012 0.609687 -0.037676
0.628390 0.609687 -0.037676
0.688368 0.609687 -0.037676
0.754390 0.623363 -0.037676
0.813513 0.631230 -0.037676
0.864330 0.633515 -0.037676
0.909138 0.631667 -0.037676
0.945189 0.623682 -0.037676
0.975806 0.614046 -0.037676
-0.067786 0.694589 -0.034399
-0.031561 0.694589 -0.037676
0.080944 0.694589 -0.037676
0.176859 0.694589 -0.037676
0.292595 0.694589 -0.037676
0.408001 0.694589 -0.037676
0.497152 0.694589 -0.037676
0.572713 0.694589 -0.037676
0.639366 0.694589 -0.037676
0.699669 0.694589 -0.037676
0.754682 0.694589 -0.037676
0.813268 0.702471 -0.037676
0.864330 0.705884 -0.037676
0.909138 0.703897 -0.037676
0.945189 0.694958 -0.037676
0.975806 0.684062 -0.037676
-0.067786 0.776456 -0.031199
-0.031561 0.776456 -0.037676
0.083212 0.776456 -0.037676
0.179904 0.776456 -0.037676
0.297948 0.776456 -0.037676
0.413424 0.776456 -0.037676
0.503089 0.776456 -0.037676
0.578703 0.776456 -0.037676
0.645506 0.776456 -0.037676
0.705955 0.776456 -0.037676
0.761516 0.776456 -0.037676
0.813533 0.776456 -0.037676
0.864330 0.779099 -0.037676
0.909138 0.777989 -0.037676
0.945189 0.767060 -0.037676
0.975806 0.754960 -0.037676
-0.067786 0.853674 -0.030008
-0.031561 0.853674 -0.037676
0.083212 0.853674 -0.037676
0.181466 0.853674 -0.037676
0.300897 0.853674 -0.037676
0.416174 0.853674 -0.037676
0.505019 0.853674 -0.037676
0.580677 0.853674 -0.037676
0.647543 0.853674 -0.037676
0.708115 0.853674 -0.037676
0.764099 0.853674 -0.037676
0.816062 0.853674 -0.037676
0.865036 0.853898 -0.037676
0.909138 0.851635 -0.037676
0.945189 0.839709 -0.037676
0.975806 0.826320 -0.037676
-0.067786 0.925014 -0.031029
-0.031561 0.925014 -0.037676
0.083212 0.925014 -0.037676
0.179904 0.925014 -0.037676
0.298272 0.925014 -0.037676
0.413815 0.925014 -0.037676
0.503339 0.925014 -0.037676
0.578989 0.925014 -0.037676
0.645739 0.925014 -0.037676
0.706295 0.925014 -0.037676
0.761732 0.925014 -0.037676
0.813739 0.925014 -0.037676
0.862934 0.924394 -0.037676
0.909138 0.926074 -0.037676
0.945189 0.913174 -0.037676
0.975806 0.898660 -0.037676
-0.067786 0.985731 -0.034256
-0.031561 0.985731 -0.037676
0.080944 0.985731 -0.037676
0.176859 0.985731 -0.037676
0.292989 0.985731 -0.037676
0.408374 0.985731 -0.037676
0.497402 0.985731 -0.037676
0.572973 0.985731 -0.037676
0.639640 0.985731 -0.037676
0.699933 0.985731 -0.037676
0.755730 0.985731 -0.037676
0.806720 0.985731 -0.037676
0.855783 0.985731 -0.037676
0.901650 0.986293 -0.037676
0.945189 0.985731 -0.037676
0.975806 0.970438 -0.037676
-0.067786 1.039229 -0.037677
-0.031561 1.039229 -0.037676
0.079818 1.039229 -0.037676
0.172296 1.039229 -0.037676
0.285641 1.039229 -0.037676
0.400810 1.039229 -0.037676
0.489960 1.039229 -0.037676
0.565435 1.039229 -0.037676
0.631876 1.039229 -0.037676
0.691978 1.039229 -0.037676
0.747567 1.039229 -0.037676
0.798231 1.039229 -0.037676
0.847089 1.039229 -0.037676
0.892791 1.039229 -0.037676
0.936056 1.039229 -0.037676
0.975806 1.039229 -0.037676
-0.067786 -0.063914 0.058474
-0.054905 -0.063914 0.058474
0.036690 -0.063914 0.058474
0.090151 -0.063914 0.054656
0.171006 -0.063914 0.060424
0.287784 -0.063914 0.068452
0.416451 -0.063914 0.076208
0.521595 -0.063914 0.083179
0.611566 -0.063914 0.089027
0.688368 -0.063914 0.093181
0.754372 -0.063914 0.095974
0.813513 -0.063914 0.097357
0.864330 -0.063914 0.097414
0.909138 -0.063914 0.097545
0.945189 -0.063914 0.096017
0.975806 -0.063914 0.094055
-0.067786 -0.044764 0.058474
-0.031561 0.033739 0.058474
0.036690 0.033739 0.058474
0.090151 0.033739 0.061691
0.171006 0.033739 0.067090
0.287784 0.033739 0.073803
0.416451 0.033739 0.079739
0.521595 0.033739 0.085283
0.611566 0.033739 0.089980
0.688368 0.033739 0.093334
0.754372 0.033739 0.095527
0.813513 0.033739 0.096830
0.864330 0.033739 0.097039
0.909138 0.033739 0.096856
0.945189 0.033739 0.095648
0.975806 0.033739 0.094055
-0.067786 0.106765 0.058474
-0.031561 0.106765 0.058474
0.035864 0.106765 0.058474
0.090151 0.106765 0.058474
0.171729 0.106172 0.058257
0.286546 0.105103 0.057429
0.417192 0.104568 0.056980
0.522008 0.104304 0.056789
0.611845 0.104030 0.056594
0.688507 0.103733 0.056384
0.754624 0.104030 0.055957
0.813567 0.102931 0.056384
0.864368 0.102614 0.055704
0.909158 0.102216 0.055436
0.945229 0.101812 0.055068
0.975823 0.101422 0.054800
-0.067786 0.154635 0.054882
-0.031561 0.154635 0.061658
0.035864 0.154635 0.058063
0.090151 0.154635 0.057800
0.171855 0.162320 0.057893
0.286719 0.170025 0.057642
0.417277 0.176711 0.056617
0.522107 0.183640 0.056365
0.611881 0.189577 0.056112
0.688593 0.193815 0.055843
0.755512 0.197305 0.055475
0.813608 0.198102 0.055206
0.864378 0.199073 0.054799
0.909164 0.197527 0.054451
0.945239 0.195626 0.054164
0.975828 0.193244 0.053817
-0.067786 0.211403 0.060635
-0.031561 0.211403 0.067364
0.035042 0.211403 0.058067
0.098531 0.211403 0.057650
0.173389 0.211794 0.057253
0.288561 0.224801 0.057001
0.417277 0.237107 0.056617
0.522107 0.248521 0.056365
0.611881 0.258277 0.056112
0.688593 0.265208 0.055843
0.755512 0.269830 0.055475
0.813608 0.272336 0.055206
0.864378 0.272404 0.054799
0.909164 0.272278 0.054451
0.945239 0.268836 0.054164
0.975828 0.265153 0.053817
-0.067786 0.278114 0.068483
-0.031561 0.278114 0.073666
0.034231 0.279020 0.057459
0.108446 0.279020 0.056710
0.193546 0.278693 0.056938
0.288566 0.278820 0.056987
0.417358 0.295742 0.056299
0.522111 0.311223 0.056348
0.611881 0.324481 0.056112
0.688593 0.333903 0.055843
0.755512 0.339984 0.055475
0.813608 0.343970 0.055206
0.864378 0.344543 0.054799
0.909164 0.343288 0.054451
0.945239 0.339047 0.054164
0.975828 0.334154 0.053817
-0.067786 0.353538 0.076208
-0.031561 0.353538 0.079739
0.034231 0.353538 0.056584
0.118724 0.353538 0.056108
0.214070 0.354043 0.056250
0.320567 0.354370 0.056169
0.416974 0.354043 0.056250
0.522145 0.373702 0.056169
0.611885 0.390352 0.056055
0.688593 0.402184 0.055843
0.755515 0.410866 0.055419
0.813608 0.414347 0.055206
0.864378 0.415409 0.054799
0.909164 0.413898 0.054451
0.945239 0.408885 0.054164
0.975828 0.402722 0.053817
-0.067786 0.436020 0.083179
-0.031561 0.436020 0.085283
0.033427 0.436020 0.056790
0.128009 0.436938 0.056205
0.232914 0.436368 0.056082
0.347557 0.436368 0.056082
0.444360 0.436368 0.056082
0.521895 0.436368 0.056082
0.611890 0.456597 0.055980
0.688596 0.470854 0.055777
0.755520 0.480301 0.055345
0.813611 0.486055 0.055777
0.864378 0.486590 0.054799
0.909164 0.484911 0.054451
0.945239 0.478982 0.054164
0.975828 0.471598 0.053817
-0.067786 0.523006 0.089027
-0.031561 0.523006 0.089980
0.033427 0.523006 0.056497
0.137567 0.523006 0.056102
0.249002 0.523247 0.055844
0.370293 0.523247 0.055844
0.466321 0.523247 0.055844
0.544169 0.523247 0.055844
0.611743 0.523247 0.055844
0.688597 0.540116 0.055744
0.755364 0.551182 0.055208
0.813612 0.556552 0.055744
0.864378 0.559309 0.054799
0.909164 0.556495 0.054451
0.945239 0.549625 0.054164
0.975828 0.541031 0.053817
-0.067786 0.609687 0.093181
-0.031561 0.609687 0.093334
0.033427 0.609687 0.056493
0.143145 0.609687 0.055373
0.264140 0.609866 0.055545
0.386035 0.609866 0.055545
0.481288 0.609866 0.055545
0.559387 0.609866 0.055545
0.627394 0.609866 0.055545
0.688432 0.609866 0.055545
0.756064 0.623568 0.055545
0.813578 0.630438 0.054913
0.864378 0.631733 0.054799
0.909164 0.629709 0.054451
0.945239 0.620969 0.054164
0.975828 0.611121 0.053817
-0.067786 0.694589 0.095928
-0.031561 0.694589 0.095593
0.032629 0.694589 0.055831
0.147385 0.694589 0.055513
0.270652 0.694720 0.055194
0.395446 0.694720 0.055194
0.490892 0.694720 0.055194
0.569193 0.694720 0.055194
0.637511 0.694720 0.055194
0.698935 0.694720 0.055194
0.754784 0.694720 0.055194
0.813417 0.702694 0.054560
0.864378 0.704910 0.054788
0.909164 0.702667 0.054451
0.945239 0.693019 0.054154
0.975828 0.681859 0.053817
-0.067786 0.776456 0.097502
-0.031561 0.776456 0.096868
0.032629 0.776456 0.055990
0.148812 0.776456 0.054786
0.276350 0.776449 0.054798
0.400089 0.776449 0.054798
0.496078 0.776449 0.054798
0.574581 0.776449 0.054798
0.643013 0.776449 0.054798
0.704640 0.776449 0.054798
0.761073 0.776449 0.054798
0.813779 0.776449 0.054798
0.864378 0.778677 0.054758
0.909164 0.777331 0.054439
0.945239 0.765691 0.054127
0.975828 0.753204 0.053804
-0.067786 0.853674 0.098034
-0.031561 0.853674 0.097297
0.031839 0.853674 0.055196
0.150235 0.853674 0.054531
0.276792 0.853713 0.054366
0.402215 0.853713 0.054366
0.497589 0.853713 0.054366
0.576079 0.853713 0.054366
0.644653 0.853713 0.054366
0.706281 0.853713 0.054366
0.763178 0.853713 0.054366
0.815224 0.853713 0.054366
0.865084 0.853036 0.054121
0.909164 0.850538 0.054415
0.945239 0.838830 0.054121
0.975828 0.825258 0.053777
-0.067786 0.925014 0.097570
-0.031561 0.925014 0.096938
0.031057 0.925014 0.055423
0.148812 0.925014 0.054203
0.273793 0.924917 0.053914
0.400823 0.924917 0.053914
0.495528 0.924917 0.053914
0.574041 0.924917 0.053914
0.642496 0.924917 0.053914
0.704173 0.924917 0.053914
0.760576 0.924917 0.053914
0.812637 0.924917 0.053914
0.862249 0.925122 0.053994
0.909164 0.925411 0.054412
0.945215 0.912931 0.053994
0.975828 0.897982 0.053774
-0.067786 0.985731 0.096017
-0.031561 0.985731 0.095648
0.031057 0.985731 0.055270
0.145959 0.985731 0.053670
0.268494 0.985742 0.053483
0.394939 0.985742 0.053483
0.489396 0.985742 0.053483
0.567772 0.985742 0.053483
0.636111 0.985742 0.053483
0.697543 0.985742 0.053483
0.754341 0.985742 0.053483
0.806106 0.985742 0.053483
0.855018 0.985742 0.053483
0.900964 0.986023 0.053597
0.945205 0.985742 0.053483
0.975801 0.970056 0.053597
-0.067786 1.039229 0.094055
-0.031561 1.039229 0.094055
0.031057 1.039243 0.055391
0.141741 1.039251 0.053495
0.261342 1.039251 0.053364
0.387092 1.039251 0.053364
0.481818 1.039251 0.053364
0.560111 1.039251 0.053364
0.628261 1.039251 0.053364
0.689445 1.039251 0.053364
0.745314 1.039251 0.053364
0.797554 1.039251 0.053364
0.846049 1.039251 0.053364
0.892078 1.039251 0.053364
0.935795 1.039251 0.053364
0.975833 1.039251 0.053364
-0.067786 -0.063914 0.101745
-0.056053 -0.063914 0.101745
0.032629 -0.063914 0.101745
0.090151 -0.063914 0.101745
0.171006 -0.063914 0.109265
0.287784 -0.063914 0.119705
0.416451 -0.063914 0.130299
0.521595 -0.063914 0.140297
0.611566 -0.063914 0.148831
0.688368 -0.063914 0.154964
0.754372 -0.063914 0.159433
0.813513 -0.063914 0.161814
0.864330 -0.063914 0.162226
0.909138 -0.063914 0.161594
0.945189 -0.063914 0.159167
0.975806 -0.063914 0.156260
-0.067786 -0.046661 0.101745
-0.031561 0.033739 0.101745
0.040069 0.033739 0.101745
0.090151 0.033739 0.101745
0.171006 0.033739 0.110893
0.287784 0.033739 0.122184
0.416451 0.033739 0.131971
0.521595 0.033739 0.141354
0.611566 0.033739 0.149329
0.688368 0.033739 0.155053
0.754372 0.033739 0.159181
0.813513 0.033739 0.160373
0.864330 0.033739 0.161265
0.909138 0.033739 0.161594
0.945189 0.033739 0.158974
0.975806 0.033739 0.156260
-0.067786 0.102649 0.101745
-0.031561 0.110380 0.101745
0.035864 0.105855 0.101745
0.090151 0.106355 0.101745
0.171737 0.106116 0.108219
0.286551 0.105086 0.115393
0.417167 0.104512 0.122637
0.522012 0.104284 0.129230
0.611846 0.104017 0.134918
0.688507 0.103720 0.138957
0.754625 0.104017 0.141614
0.813567 0.102918 0.143441
0.864368 0.102611 0.143193
0.909158 0.102215 0.142471
0.945229 0.101810 0.140950
0.975823 0.101420 0.138743
-0.067786 0.154635 0.101745
-0.031561 0.154635 0.101745
0.035864 0.154635 0.101745
0.088983 0.154635 0.101745
0.171532 0.154386 0.102003
0.289852 0.152720 0.101337
0.418407 0.151878 0.099889
0.522944 0.151040 0.099226
0.612442 0.150329 0.098666
0.688969 0.149645 0.098147
0.755946 0.148669 0.097976
0.813218 0.147979 0.096756
0.864393 0.147646 0.096159
0.909213 0.146921 0.096343
0.945255 0.145981 0.095463
0.975870 0.145256 0.094951
-0.067786 0.211403 0.109056
-0.031561 0.211403 0.111222
0.035042 0.211403 0.108343
0.086653 0.212281 0.101276
0.171787 0.212561 0.100263
0.288370 0.219102 0.100799
0.418661 0.226475 0.099568
0.523162 0.233055 0.098693
0.612597 0.238851 0.097970
0.689068 0.242865 0.097295
0.755245 0.245894 0.097265
0.814068 0.246396 0.096604
0.865134 0.246662 0.095245
0.909231 0.245292 0.094576
0.945289 0.242254 0.093849
0.975886 0.239129 0.093184
-0.067786 0.278114 0.119541
-0.031561 0.278114 0.121746
0.034231 0.279020 0.115202
0.084349 0.279916 0.099574
0.181490 0.279622 0.098016
0.288370 0.279258 0.098693
0.419218 0.292176 0.098016
0.523162 0.303545 0.098693
0.612597 0.313444 0.097970
0.689068 0.320394 0.097295
0.755245 0.324353 0.097265
0.814068 0.327676 0.096604
0.865134 0.327732 0.095245
0.909231 0.325779 0.094576
