data/texture/07_Davinci Resolve LUTs_Sunset.cube
LUT_3D_SIZE 6
-0.067786 -0.063914 -0.081808
0.090151 -0.063914 -0.081808
0.416451 -0.063914 -0.081808
0.688368 -0.063914 -0.081808
0.864330 -0.063914 -0.081808
0.975806 -0.063914 -0.081808
-0.067786 0.154635 -0.081808
0.090151 0.154635 -0.081808
0.416451 0.185108 -0.081808
0.688368 0.210906 -0.081808
0.864330 0.218779 -0.081808
0.975806 0.212278 -0.081808
-0.067786 0.353538 -0.081808
0.130719 0.353538 -0.081808
0.416451 0.353538 -0.081808
0.688368 0.406249 -0.081808
0.864330 0.421814 -0.081808
0.975806 0.409045 -0.081808
-0.067786 0.609687 -0.081808
0.170797 0.609687 -0.081808
0.486568 0.609687 -0.081808
0.688368 0.609687 -0.081808
0.864330 0.633582 -0.081808
0.975806 0.614046 -0.081808
-0.067786 0.853674 -0.081808
0.182992 0.853674 -0.081808
0.505175 0.853674 -0.081808
0.708110 0.853674 -0.081808
0.865036 0.853915 -0.081808
0.975806 0.826320 -0.081808
-0.067786 1.039229 -0.081808
0.172296 1.039229 -0.081808
0.489960 1.039229 -0.081808
0.691978 1.039229 -0.081808
0.847089 1.039229 -0.081808
0.975806 1.039229 -0.081808
-0.067786 -0.063914 0.101745
0.090151 -0.063914 0.101745
0.416451 -0.063914 0.130299
0.688368 -0.063914 0.154964
0.864330 -0.063914 0.162226
0.975806 -0.063914 0.156260
-0.067786 0.154635 0.101745
0.088983 0.154635 0.101745
0.418407 0.151878 0.099889
0.688969 0.149645 0.098147
0.864393 0.147646 0.096159
0.975870 0.145256 0.094951
-0.067786 0.353538 0.130299
0.084349 0.354425 0.098849
0.418044 0.355167 0.097628
0.689068 0.393954 0.097295
0.865134 0.402623 0.095245
0.975886 0.389998 0.093184
-0.067786 0.609687 0.154964
0.082074 0.610675 0.098020
0.470019 0.610337 0.096269
0.688724 0.610337 0.096269
0.865134 0.627390 0.094546
0.975886 0.605420 0.093184
-0.067786 0.853674 0.162195
0.078700 0.853674 0.097221
0.481774 0.853820 0.094018
0.702569 0.853820 0.094018
0.865138 0.853510 0.094257
0.975887 0.823046 0.092927
-0.067786 1.039229 0.156260
0.076482 1.039281 0.095646
0.464659 1.039311 0.092108
0.684330 1.039311 0.092108
0.844799 1.039311 0.092108
0.975831 1.039311 0.092108
-0.067786 -0.063914 0.296483
0.130719 -0.063914 0.296483
0.416451 -0.063914 0.296483
0.688368 -0.063914 0.350496
0.864330 -0.063914 0.365970
0.975806 -0.063914 0.353403
-0.067786 0.185108 0.296483
0.084349 0.151380 0.297344
0.416990 0.149997 0.297628
0.688943 0.149357 0.338121
0.864394 0.146774 0.348723
0.975870 0.145216 0.334720
-0.067786 0.353538 0.296483
0.084349 0.353538 0.297344
0.407138 0.352499 0.299723
0.690890 0.349492 0.294154
0.865657 0.342043 0.288278
0.976092 0.335208 0.282236
-0.067786 0.609687 0.350496
0.082074 0.610675 0.338306
0.395455 0.613026 0.289842
0.689360 0.614001 0.284643
0.865752 0.609471 0.287418
0.976174 0.582333 0.280088
-0.067786 0.853674 0.366507
0.078700 0.853674 0.348821
0.384427 0.854833 0.284129
0.681473 0.855317 0.277104
0.863791 0.855662 0.277346
0.976240 0.814466 0.275716
-0.067786 1.039229 0.353403
0.076482 1.039281 0.334200
0.375034 1.039741 0.280215
0.657235 1.039988 0.271288
0.835913 1.039988 0.271288
0.975190 1.039988 0.271288
-0.067786 -0.063914 0.564425
0.170797 -0.063914 0.564425
0.486568 -0.063914 0.564425
0.688368 -0.063914 0.564425
0.864330 -0.063914 0.590022
0.975806 -0.063914 0.569086
-0.067786 0.210906 0.564425
0.082074 0.149719 0.565384
0.469985 0.148152 0.564845
0.688348 0.148152 0.564845
0.864395 0.146690 0.584514
0.975870 0.145147 0.560353
-0.067786 0.406249 0.564425
0.082074 0.394140 0.565384
0.393074 0.342175 0.567139
0.687017 0.338848 0.567582
0.865734 0.337981 0.564826
0.976118 0.333464 0.538023
-0.067786 0.609687 0.564425
0.082074 0.609687 0.565384
0.393074 0.610626 0.567139
0.679927 0.607413 0.568713
0.866039 0.605994 0.563302
0.976307 0.599765 0.557386
-0.067786 0.853674 0.590373
0.078700 0.853674 0.584566
0.384427 0.854833 0.563787
0.669785 0.856574 0.555817
0.862311 0.856464 0.552622
0.976257 0.822881 0.559034
-0.067786 1.039229 0.569086
0.076482 1.039281 0.560535
0.375034 1.039741 0.537099
0.660795 1.040793 0.547034
0.833590 1.041230 0.541941
0.974129 1.041230 0.541941
-0.067786 -0.063914 0.829559
0.182992 -0.063914 0.829559
0.505175 -0.063914 0.829559
0.708110 -0.063914 0.829559
0.865036 -0.063914 0.829423
0.975806 -0.063914 0.799465
-0.067786 0.218421 0.829559
0.077587 0.147253 0.829559
0.481960 0.145055 0.829629
0.702504 0.145055 0.829629
0.864356 0.145302 0.829939
0.975871 0.145043 0.796079
-0.067786 0.421789 0.829559
0.077587 0.402935 0.829559
0.379117 0.334720 0.829993
0.680774 0.329977 0.830070
0.862484 0.330033 0.830365
0.976160 0.330543 0.788622
-0.067786 0.633879 0.829559
0.077587 0.626966 0.829559
0.379117 0.605264 0.829993
0.664648 0.590100 0.830841
0.858072 0.587269 0.831367
0.976549 0.589022 0.797170
-0.067786 0.853674 0.829559
0.077587 0.853674 0.829559
0.379117 0.852777 0.829993
0.664648 0.850613 0.830841
0.856706 0.848652 0.830605
0.976399 0.849720 0.830354
-0.067786 1.039229 0.799465
0.076482 1.039281 0.795471
0.375034 1.039741 0.787537
0.660795 1.040793 0.793605
0.853167 1.041307 0.826023
0.975066 1.040169 0.828036
-0.067786 -0.063914 1.052711
0.172296 -0.063914 1.052711
0.489960 -0.063914 1.052711
0.691978 -0.063914 1.052711
0.847089 -0.063914 1.052711
0.975806 -0.063914 1.052711
-0.067786 0.212278 1.052711
0.076482 0.145936 1.052915
0.465598 0.144158 1.052946
0.684491 0.144158 1.052946
0.844869 0.144158 1.052946
0.975774 0.144158 1.052946
-0.067786 0.409045 1.052711
0.076482 0.391315 1.052915
0.375034 0.332668 1.054629
0.660043 0.327497 1.055070
0.836334 0.327497 1.055070
0.975373 0.327497 1.055070
-0.067786 0.614046 1.052711
0.076482 0.605250 1.052915
0.375034 0.581787 1.054629
0.660795 0.586302 1.058647
0.834876 0.582567 1.059582
0.974305 0.582567 1.059582
-0.067786 0.826320 1.052711
0.076482 0.823238 1.052915
0.375034 0.813922 1.054629
0.660795 0.816260 1.058647
0.853294 0.844893 1.060639
0.974275 0.845875 1.059503
-0.067786 1.039229 1.052711
0.076482 1.039281 1.052915
0.375034 1.039741 1.054629
0.660795 1.040793 1.058647
0.853253 1.041307 1.060639
0.975121 1.040136 1.056158
